dist/assets/images/ico/ico_ggurumi_on.svg

<svg width="18" height="19" viewBox="0 0 18 19" fill="none" xmlns="http://www.w3.org/2000/svg">
<g filter="url(#filter0_d_133_5929)">
<mask id="path-1-outside-1_133_5929" maskUnits="userSpaceOnUse" x="2" y="2.375" width="14" height="14" fill="black">
<rect fill="white" x="2" y="2.375" width="14" height="14"/>
<path fill-rule="evenodd" clip-rule="evenodd" d="M4.33333 4.375H13.6667C13.8508 4.375 14 4.52424 14 4.70833V14.0417C14 14.2258 13.8508 14.375 13.6667 14.375H4.33333C4.14924 14.375 4 14.2258 4 14.0417V4.70833C4 4.52424 4.14924 4.375 4.33333 4.375ZM3 4.70833C3 3.97195 3.59695 3.375 4.33333 3.375H13.6667C14.403 3.375 15 3.97195 15 4.70833V14.0417C15 14.778 14.403 15.375 13.6667 15.375H4.33333C3.59695 15.375 3 14.778 3 14.0417V4.70833ZM7.21012 5.65767V12.0417H8.35413V10.9217L9.00212 10.1857L10.0901 12.0417H11.3621L9.66613 9.39367L11.2181 7.56167H9.93813L8.38613 9.49767H8.35413V5.65767H7.21012Z"/>
</mask>
<path fill-rule="evenodd" clip-rule="evenodd" d="M4.33333 4.375H13.6667C13.8508 4.375 14 4.52424 14 4.70833V14.0417C14 14.2258 13.8508 14.375 13.6667 14.375H4.33333C4.14924 14.375 4 14.2258 4 14.0417V4.70833C4 4.52424 4.14924 4.375 4.33333 4.375ZM3 4.70833C3 3.97195 3.59695 3.375 4.33333 3.375H13.6667C14.403 3.375 15 3.97195 15 4.70833V14.0417C15 14.778 14.403 15.375 13.6667 15.375H4.33333C3.59695 15.375 3 14.778 3 14.0417V4.70833ZM7.21012 5.65767V12.0417H8.35413V10.9217L9.00212 10.1857L10.0901 12.0417H11.3621L9.66613 9.39367L11.2181 7.56167H9.93813L8.38613 9.49767H8.35413V5.65767H7.21012Z" fill="#FFC600" shape-rendering="crispEdges"/>
<path d="M7.21012 12.0417H6.54346V12.7083H7.21012V12.0417ZM7.21012 5.65767V4.991H6.54346V5.65767H7.21012ZM8.35413 12.0417V12.7083H9.02079V12.0417H8.35413ZM8.35413 10.9217L7.85376 10.4811L7.68746 10.67V10.9217H8.35413ZM9.00212 10.1857L9.57726 9.84852L9.111 9.05314L8.50176 9.74513L9.00212 10.1857ZM10.0901 12.0417L9.51499 12.3788L9.70816 12.7083H10.0901V12.0417ZM11.3621 12.0417V12.7083H12.5808L11.9235 11.6821L11.3621 12.0417ZM9.66613 9.39367L9.15745 8.96274L8.83911 9.33851L9.10473 9.75323L9.66613 9.39367ZM11.2181 7.56167L11.7268 7.99259L12.6566 6.895H11.2181V7.56167ZM9.93813 7.56167V6.895H9.61812L9.41797 7.14468L9.93813 7.56167ZM8.38613 9.49767V10.1643H8.70613L8.90628 9.91465L8.38613 9.49767ZM8.35413 9.49767H7.68746V10.1643H8.35413V9.49767ZM8.35413 5.65767H9.02079V4.991H8.35413V5.65767ZM13.6667 4.375V3.70833H4.33333V4.375V5.04167H13.6667V4.375ZM14 4.70833H14.6667C14.6667 4.15605 14.219 3.70833 13.6667 3.70833V4.375V5.04167C13.4826 5.04167 13.3333 4.89243 13.3333 4.70833H14ZM14 14.0417H14.6667V4.70833H14H13.3333V14.0417H14ZM13.6667 14.375V15.0417C14.219 15.0417 14.6667 14.594 14.6667 14.0417H14H13.3333C13.3333 13.8576 13.4826 13.7083 13.6667 13.7083V14.375ZM4.33333 14.375V15.0417H13.6667V14.375V13.7083H4.33333V14.375ZM4 14.0417H3.33333C3.33333 14.594 3.78105 15.0417 4.33333 15.0417V14.375V13.7083C4.51743 13.7083 4.66667 13.8576 4.66667 14.0417H4ZM4 4.70833H3.33333V14.0417H4H4.66667V4.70833H4ZM4.33333 4.375V3.70833C3.78105 3.70833 3.33333 4.15605 3.33333 4.70833H4H4.66667C4.66667 4.89243 4.51743 5.04167 4.33333 5.04167V4.375ZM4.33333 3.375V2.70833C3.22876 2.70833 2.33333 3.60376 2.33333 4.70833H3H3.66667C3.66667 4.34014 3.96514 4.04167 4.33333 4.04167V3.375ZM13.6667 3.375V2.70833H4.33333V3.375V4.04167H13.6667V3.375ZM15 4.70833H15.6667C15.6667 3.60376 14.7712 2.70833 13.6667 2.70833V3.375V4.04167C14.0349 4.04167 14.3333 4.34014 14.3333 4.70833H15ZM15 14.0417H15.6667V4.70833H15H14.3333V14.0417H15ZM13.6667 15.375V16.0417C14.7712 16.0417 15.6667 15.1462 15.6667 14.0417H15H14.3333C14.3333 14.4099 14.0349 14.7083 13.6667 14.7083V15.375ZM4.33333 15.375V16.0417H13.6667V15.375V14.7083H4.33333V15.375ZM3 14.0417H2.33333C2.33333 15.1462 3.22876 16.0417 4.33333 16.0417V15.375V14.7083C3.96514 14.7083 3.66667 14.4099 3.66667 14.0417H3ZM3 4.70833H2.33333V14.0417H3H3.66667V4.70833H3ZM7.21012 12.0417H7.87679V5.65767H7.21012H6.54346V12.0417H7.21012ZM8.35413 12.0417V11.375H7.21012V12.0417V12.7083H8.35413V12.0417ZM8.35413 10.9217H7.68746V12.0417H8.35413H9.02079V10.9217H8.35413ZM9.00212 10.1857L8.50176 9.74513L7.85376 10.4811L8.35413 10.9217L8.85449 11.3622L9.50249 10.6262L9.00212 10.1857ZM10.0901 12.0417L10.6653 11.7045L9.57726 9.84852L9.00212 10.1857L8.42699 10.5228L9.51499 12.3788L10.0901 12.0417ZM11.3621 12.0417V11.375H10.0901V12.0417V12.7083H11.3621V12.0417ZM9.66613 9.39367L9.10473 9.75323L10.8007 12.4012L11.3621 12.0417L11.9235 11.6821L10.2275 9.0341L9.66613 9.39367ZM11.2181 7.56167L10.7095 7.13074L9.15745 8.96274L9.66613 9.39367L10.1748 9.82459L11.7268 7.99259L11.2181 7.56167ZM9.93813 7.56167V8.22833H11.2181V7.56167V6.895H9.93813V7.56167ZM8.38613 9.49767L8.90628 9.91465L10.4583 7.97865L9.93813 7.56167L9.41797 7.14468L7.86597 9.08068L8.38613 9.49767ZM8.35413 9.49767V10.1643H8.38613V9.49767V8.831H8.35413V9.49767ZM8.35413 5.65767H7.68746V9.49767H8.35413H9.02079V5.65767H8.35413ZM7.21012 5.65767V6.32433H8.35413V5.65767V4.991H7.21012V5.65767Z" fill="black" fill-opacity="0.8" mask="url(#path-1-outside-1_133_5929)"/>
</g>
<defs>
<filter id="filter0_d_133_5929" x="0.182116" y="0.557604" width="17.6358" height="17.6348" filterUnits="userSpaceOnUse" color-interpolation-filters="sRGB">
<feFlood flood-opacity="0" result="BackgroundImageFix"/>
<feColorMatrix in="SourceAlpha" type="matrix" values="0 0 0 0 0 0 0 0 0 0 0 0 0 0 0 0 0 0 127 0" result="hardAlpha"/>
<feOffset/>
<feGaussianBlur stdDeviation="1.07545"/>
<feComposite in2="hardAlpha" operator="out"/>
<feColorMatrix type="matrix" values="0 0 0 0 0 0 0 0 0 0 0 0 0 0 0 0 0 0 0.5 0"/>
<feBlend mode="normal" in2="BackgroundImageFix" result="effect1_dropShadow_133_5929"/>
<feBlend mode="normal" in="SourceGraphic" in2="effect1_dropShadow_133_5929" result="shape"/>
</filter>
</defs>
</svg>

<svg width="18" height="19" fill="none" xmlns="http://www.w3.org/2000/svg"><g filter="url(#filter0_d_133_5929)"><mask id="a" maskUnits="userSpaceOnUse" x="2" y="2.375" width="14" height="14" fill="#000"><path fill="#fff" d="M2 2.375h14v14H2z"/><path fill-rule="evenodd" clip-rule="evenodd" d="M4.333 4.375h9.334c.184 0 .333.15.333.333v9.334c0 .184-.15.333-.333.333H4.333A.333.333 0 014 14.042V4.708c0-.184.15-.333.333-.333zM3 4.708c0-.736.597-1.333 1.333-1.333h9.334c.736 0 1.333.597 1.333 1.333v9.334c0 .736-.597 1.333-1.333 1.333H4.333A1.333 1.333 0 013 14.042V4.708zm4.21.95v6.384h1.144v-1.12l.648-.736 1.088 1.856h1.272L9.666 9.394l1.552-1.832h-1.28L8.386 9.498h-.032v-3.84H7.21z"/></mask><path fill-rule="evenodd" clip-rule="evenodd" d="M4.333 4.375h9.334c.184 0 .333.15.333.333v9.334c0 .184-.15.333-.333.333H4.333A.333.333 0 014 14.042V4.708c0-.184.15-.333.333-.333zM3 4.708c0-.736.597-1.333 1.333-1.333h9.334c.736 0 1.333.597 1.333 1.333v9.334c0 .736-.597 1.333-1.333 1.333H4.333A1.333 1.333 0 013 14.042V4.708zm4.21.95v6.384h1.144v-1.12l.648-.736 1.088 1.856h1.272L9.666 9.394l1.552-1.832h-1.28L8.386 9.498h-.032v-3.84H7.21z" fill="#FFC600" shape-rendering="crispEdges"/><path d="M7.21 12.042h-.667v.666h.667v-.666zm0-6.384V4.99h-.667v.667h.667zm1.144 6.384v.666h.667v-.666h-.667zm0-1.12l-.5-.44-.167.188v.252h.667zm.648-.736l.575-.337-.466-.796-.61.692.501.44zm1.088 1.856l-.575.337.193.33h.382v-.667zm1.272 0v.666h1.219l-.657-1.026-.562.36zM9.666 9.394l-.509-.431-.318.376.266.414.561-.36zm1.552-1.832l.509.43.93-1.097h-1.439v.667zm-1.28 0v-.667h-.32l-.2.25.52.417zM8.386 9.498v.666h.32l.2-.25-.52-.416zm-.032 0h-.667v.666h.667v-.666zm0-3.84h.667V4.99h-.667v.667zm5.313-1.283v-.667H4.333v1.334h9.334v-.667zm.333.333h.667a1 1 0 00-1-1v1.334a.333.333 0 01-.334-.334H14zm0 9.334h.667V4.708h-1.334v9.334H14zm-.333.333v.667a1 1 0 001-1h-1.334c0-.184.15-.334.334-.334v.667zm-9.334 0v.667h9.334v-1.334H4.333v.667zM4 14.042h-.667a1 1 0 001 1v-1.334c.184 0 .334.15.334.334H4zm0-9.334h-.667v9.334h1.334V4.708H4zm.333-.333v-.667a1 1 0 00-1 1h1.334c0 .184-.15.334-.334.334v-.667zm0-1v-.667a2 2 0 00-2 2h1.334c0-.368.298-.666.666-.666v-.667zm9.334 0v-.667H4.333v1.334h9.334v-.667zM15 4.708h.667a2 2 0 00-2-2v1.334c.368 0 .666.298.666.666H15zm0 9.334h.667V4.708h-1.334v9.334H15zm-1.333 1.333v.667a2 2 0 002-2h-1.334a.667.667 0 01-.666.666v.667zm-9.334 0v.667h9.334v-1.334H4.333v.667zM3 14.042h-.667a2 2 0 002 2v-1.334a.667.667 0 01-.666-.666H3zm0-9.334h-.667v9.334h1.334V4.708H3zm4.21 7.334h.667V5.658H6.543v6.384h.667zm1.144 0v-.667H7.21v1.333h1.144v-.666zm0-1.12h-.667v1.12h1.334v-1.12h-.667zm.648-.736l-.5-.44-.648.735.5.44.5.441.648-.736-.5-.44zm1.088 1.856l.575-.338L9.577 9.85l-.575.337-.575.337 1.088 1.856.575-.337zm1.272 0v-.667H10.09v1.333h1.272v-.666zM9.666 9.394l-.561.36L10.8 12.4l.561-.36.562-.359-1.697-2.648-.56.36zm1.552-1.832l-.508-.431-1.553 1.832.51.43.508.432 1.552-1.832-.509-.431zm-1.28 0v.666h1.28V6.895h-1.28v.667zM8.386 9.498l.52.417 1.552-1.936-.52-.417-.52-.417L7.866 9.08l.52.417zm-.032 0v.666h.032V8.831h-.032v.667zm0-3.84h-.667v3.84h1.334v-3.84h-.667zm-1.144 0v.666h1.144V4.991H7.21v.667z" fill="#000" fill-opacity=".8" mask="url(#a)"/></g><defs><filter id="filter0_d_133_5929" x=".182" y=".558" width="17.636" height="17.635" filterUnits="userSpaceOnUse" color-interpolation-filters="sRGB"><feFlood flood-opacity="0" result="BackgroundImageFix"/><feColorMatrix in="SourceAlpha" values="0 0 0 0 0 0 0 0 0 0 0 0 0 0 0 0 0 0 127 0" result="hardAlpha"/><feOffset/><feGaussianBlur stdDeviation="1.075"/><feComposite in2="hardAlpha" operator="out"/><feColorMatrix values="0 0 0 0 0 0 0 0 0 0 0 0 0 0 0 0 0 0 0.5 0"/><feBlend in2="BackgroundImageFix" result="effect1_dropShadow_133_5929"/><feBlend in="SourceGraphic" in2="effect1_dropShadow_133_5929" result="shape"/></filter></defs></svg>
